dist/static/images/common/slider-arrow-prev.svg

<svg width="20" height="35" viewBox="0 0 20 35" fill="none" xmlns="http://www.w3.org/2000/svg">
<path d="M14.5308 0.977679C15.782 -0.325896 17.8105 -0.325895 19.0616 0.97768C20.3128 2.28125 20.3128 4.39477 19.0616 5.69834L5.46918 19.8603C4.21803 21.1639 2.18952 21.1639 0.938366 19.8603C-0.312785 18.5568 -0.312785 16.4432 0.938366 15.1397L14.5308 0.977679Z" fill="#FFD53F"/>
<path d="M19.0616 29.3017C20.3128 30.6052 20.3128 32.7187 19.0616 34.0223C17.8105 35.3259 15.782 35.3259 14.5308 34.0223L0.938366 19.8603C-0.312785 18.5568 -0.312785 16.4432 0.938366 15.1397C2.18952 13.8361 4.21803 13.8361 5.46918 15.1397C6.72033 16.4432 19.0616 29.3017 19.0616 29.3017Z" fill="#FFD53F"/>
</svg>

<svg width="20" height="35" fill="none" xmlns="http://www.w3.org/2000/svg"><path d="M14.53.978a3.113 3.113 0 014.532 0c1.25 1.303 1.25 3.417 0 4.72L5.469 19.86a3.113 3.113 0 01-4.53 0c-1.252-1.303-1.252-3.417 0-4.72L14.53.978z" fill="#FFD53F"/><path d="M19.062 29.302c1.25 1.303 1.25 3.417 0 4.72a3.113 3.113 0 01-4.531 0L.938 19.86c-1.25-1.303-1.25-3.417 0-4.72a3.113 3.113 0 014.531 0l13.593 14.162z" fill="#FFD53F"/></svg>
